assets/images/wordpress.svg

<svg width="24" height="24" viewBox="0 0 24 24" fill="none" xmlns="http://www.w3.org/2000/svg">
<path d="M18.8712 11.374C18.8712 10.102 18.4137 9.22147 18.0222 8.53597L17.9022 8.34097C17.4267 7.57597 17.0111 6.90397 17.0111 6.12097C17.0111 5.17597 17.7282 4.29398 18.7392 4.29398C18.7692 4.29398 18.7976 4.29698 18.8261 4.29848L18.8727 4.30298C16.9769 2.56169 14.4957 1.59685 11.9216 1.59998C10.2156 1.5991 8.53624 2.02271 7.03475 2.83263C5.53327 3.64255 4.25689 4.81333 3.32065 6.23947C3.56065 6.24697 3.79015 6.25297 3.98365 6.25297C5.05915 6.25297 6.72565 6.12247 6.72565 6.12247C7.28065 6.08947 7.34665 6.90397 6.79165 6.96997C6.79165 6.96997 6.23515 7.03597 5.61415 7.06747L9.36415 18.2185L11.6141 11.4595L10.0091 7.06597C9.45565 7.03297 8.93065 6.96847 8.93065 6.96847C8.37565 6.93547 8.44165 6.08647 8.99515 6.11947C8.99515 6.11947 10.6961 6.24997 11.7071 6.24997C12.7841 6.24997 14.4521 6.11947 14.4521 6.11947C15.0071 6.08647 15.0716 6.90247 14.5166 6.96847C14.5166 6.96847 13.9586 7.03297 13.3391 7.06597L17.0592 18.1315L18.0851 14.701L18.1662 14.4415C18.5712 13.1515 18.8696 12.199 18.8696 11.3725L18.8712 11.374ZM1.62714 11.8945C1.62704 13.8276 2.17116 15.7217 3.19724 17.36C4.22331 18.9983 5.68989 20.3147 7.42915 21.1585L2.51665 7.70347C1.92839 9.02227 1.62528 10.4504 1.62714 11.8945Z" fill="#626262"/>
<path d="M9.01312 21.769L12.1031 12.7945L15.2666 21.4645C15.2876 21.514 15.3116 21.5605 15.3401 21.6055C13.3008 22.324 11.0868 22.3812 9.01312 21.769ZM20.9531 6.95499C20.9981 7.28349 21.0236 7.63449 21.0236 8.01399C21.0236 9.05799 20.8286 10.2325 20.2406 11.701L17.0966 20.791C19.4167 19.443 21.1185 17.2421 21.8391 14.6575C22.5598 12.0729 22.2424 9.30897 20.9546 6.95499H20.9531Z" fill="#626262"/>
<path fill-rule="evenodd" clip-rule="evenodd" d="M0 12C0 5.3835 5.3835 0 12 0C18.615 0 24 5.3835 24 12C24 18.6165 18.615 24 12 24C5.3835 24 0 18.6165 0 12ZM0.5505 12C0.5505 18.3135 5.6865 23.4495 12 23.4495C18.312 23.4495 23.448 18.3135 23.448 12C23.448 5.685 18.312 0.5505 12 0.5505C5.685 0.5505 0.5505 5.685 0.5505 12Z" fill="#626262"/>
</svg>

<svg width="24" height="24" viewBox="0 0 24 24" fill="none" xmlns="http://www.w3.org/2000/svg"><path d="M18.871 11.374c0-1.272-.457-2.153-.849-2.838l-.12-.195c-.475-.765-.89-1.437-.89-2.22 0-.945.716-1.827 1.727-1.827.03 0 .059.003.087.004l.047.005A10.257 10.257 0 0 0 11.922 1.6 10.282 10.282 0 0 0 3.32 6.24c.24.007.47.013.663.013 1.075 0 2.742-.13 2.742-.13.555-.034.62.781.066.847 0 0-.557.066-1.178.097l3.75 11.151 2.25-6.758-1.605-4.394a19.647 19.647 0 0 1-1.078-.098c-.555-.033-.49-.882.064-.849 0 0 1.701.131 2.712.131 1.077 0 2.745-.13 2.745-.13.555-.034.62.782.065.848 0 0-.558.065-1.178.098l3.72 11.066 1.026-3.431.081-.26c.405-1.29.704-2.242.704-3.069l.001.002Zm-17.244.52a10.296 10.296 0 0 0 5.802 9.264L2.517 7.704a10.255 10.255 0 0 0-.89 4.192Z" fill="#626262"/><path d="m9.013 21.769 3.09-8.974 3.164 8.67c.02.049.045.096.073.14a10.28 10.28 0 0 1-6.327.164Zm11.94-14.814c.045.328.07.68.07 1.059 0 1.044-.194 2.219-.782 3.687l-3.144 9.09a10.29 10.29 0 0 0 3.858-13.836h-.002Z" fill="#626262"/><path fill-rule="evenodd" clip-rule="evenodd" d="M0 12C0 5.383 5.383 0 12 0c6.615 0 12 5.383 12 12 0 6.616-5.385 12-12 12-6.617 0-12-5.384-12-12Zm.55 0c0 6.314 5.136 11.45 11.45 11.45 6.312 0 11.448-5.136 11.448-11.45C23.448 5.685 18.312.55 12 .55 5.685.55.55 5.685.55 12Z" fill="#626262"/></svg>
